!!!!SEGMENT: pl-wn--mus-iii-153-388_wieniawski-henryk--romance-d-a-rubinstein.krn
!!!cenid: 18xx:3795
!!!COM: Wieniawski, Henryk
!!!COM-rismID: pe137176
!!!CDT: 1835/07/10-1880/03/31
!!!CNT:
!!!OTL: Romance d’A. Rubinstein
!!!PDT:
!!!AGN:
!!!SMS-siglum: PL-Wn
!!!SMS-shelfmark: Mus.III.153.388
!!!SMS-shelfwork: W
!!!SMS-variant:
!!!SMS-altvar:
!!!NIFC-rismSourceID:
!!!NIFC-rismChildID:
!!!NIFC-islandoraID: none
!!!URL-pdf-islandora:
!!!URL-scan: https://polona.pl/item/romance-d-a-rubinstein,MTE3NDg5ODk2/0 @EN{Scan on Polona} @PL{Skany w portalu Polona}
!!!IIIF: https://polona.pl/iiif/item/MTE3NDg5ODk2/manifest.json
!!!ONB-nifc:
!!!AIN: 1 piano 1 violn
!!!key: E-
**kern	**kern	**dynam	**kern	**fing	**dynam
*	*	*	*scale:70%	*	*
*part2	*part2	*part2	*part1	*part1	*part1
*staff3	*staff2	*	*staff1	*	*
*I"PIANO.	*I"PIANO.	*	*I"VIOLON.	*	*
*mI"Pianoforte	*mI"Pianoforte	*	*mI"Violino	*	*
*Ipiano	*Ipiano	*	*Ivioln	*	*
*ICklav	*ICklav	*	*ICstr	*	*
*IGacmp	*IGacmp	*	*IGsolo	*	*
*clefF4	*clefG2	*	*clefG2	*	*
*k[b-e-a-]	*k[b-e-a-]	*	*k[b-e-a-]	*	*
*E-:	*E-:	*	*E-:	*	*
*M4/4	*M4/4	*	*M4/4	*	*
*met(c)	*met(c)	*	*met(c)	*	*
=1	=1	=1	=1	=1	=1
*xywh-3:336,1798,3286,786	*xywh-3:336,1798,3286,786	*	*xywh-3:380,1424,3257,441	*	*
!	!LO:TX:a:B:t=Andante con moto.	!	!LO:TX:a:B:t=Andante con moto.	!	!
(8EE-\L	8r	p	1r	.	.
8BB-\	4e- 4G/	.	.	.	.
8E-\	.	.	.	.	.
8B-\J)	[8e- [8G/	.	.	.	.
(8EE-\L	2g 2e-] 2G/]	.	.	.	.
8BB-\	.	.	.	.	.
8E-\	.	.	.	.	.
8B-\J)	.	.	.	.	.
=2	=2	=2	=2	=2	=2
(8EE-\L	8r	.	1r	.	.
8BB-\	4e- 4G/	.	.	.	.
8E-\	.	.	.	.	.
8B-\J)	[8e- [8G/	.	.	.	.
(8EE-\L	2g 2e-] 2G/]	.	.	.	.
8BB-\	.	.	.	.	.
8E-\	.	.	.	.	.
8B-\J)	.	.	.	.	.
=3	=3	=3	=3	=3	=3
(8EE-\L	4r	.	8r	.	.
!	!	!	!	!	!LO:DY:b:rj
8BB-\J)	.	.	8e-u/L	.	p
4E-\	(8e-L 8G/	.	8d/	.	.
.	8B-/J)	.	8e-/J	.	.
(8EE-\L	4r	.	(8en/L	.	.
8C-X\J)	.	.	8f/)	.	.
4E-\	(8fL 8A-/	.	8f`/	.	.
.	8c-X/J)	.	(8f/J	.	.
=4	=4	=4	=4	=4	=4
!	!	!	!LO:SIC:s=8a-L)	!	!
(8EE-\L	4r	.	(8a-/L)	2	.
!	!	!	!LO:SIC:s=(8a-'^	!	!
8BB-\J)	.	.	8a-'^/	.	.
4D\	(8b-L 8A-/	.	(8.g'^/	.	.
.	8B-/J)	.	.	.	.
.	.	.	16f#X/Jk))	.	.
(8EE-\L	4r	.	(4f#/	.	.
8BB-\J)	.	.	.	.	.
4E-\	(8e-L 8G/	.	4g/)	.	.
.	8B-/J)	.	.	.	.
!!LO:LB:g=original
=5	=5	=5	=5	=5	=5
*xywh-3:239,2890,3393,796	*xywh-3:239,2890,3393,796	*	*xywh-3:288,2483,3354,470	*	*
(8EE-\L	4r	.	8r	.	.
!	!	!	!LO:TX:a:t=Sul D_:dur=7qe:ext=ud:problem:text with extention lines	!	!
8BB-\J)	.	.	8gu/L	.	.
4E-\	(8gL 8G/	.	8f#X/	.	.
.	8B-/J)	.	8g/J	.	.
(8EE-\L	4r	.	(8g/L	.	<
8BB-\J)	.	.	8a-/)	.	.
!	!	!	!LO:SIC:s=8a-`	!	!
4E-\	(8a-L 8A-/	.	8a-'/	.	.
.	8c/J)	.	(8a-/J	.	.
=6	=6	=6	=6	=6	=6
*	*	*	*	*below	*
(8EE-\L	4r	.	8cc/L)	2	.
8BB-\J)	.	.	(8cc'^/	.	.
4F\	(8a-L 8B-/	.	(8.b-'^/	.	.
.	8d/J)	.	.	.	.
.	.	.	16an/Jk))	1	.
(8EE-\L	4r	.	(4cc/	3	[
8E-\J)	.	.	.	.	.
4G\	(8gL 8B-/	.	4b-/)	.	.
.	8e-/J)	.	.	.	.
=7	=7	=7	=7	=7	=7
(8GG\L	4r	.	8r	.	.
*	*	*	*	*above	*
!	!	!	!	!	!LO:DY:rj
8BB-\J)	.	.	8ee-u\L	2	sf
4E-\	(8b-L 8g/	.	(8ee-'\	.	.
.	8B-/J)	.	8ee-'\J)	.	.
(8FF\L	4r	.	((8.ee-\L	.	.
8BB-\J)	.	.	.	.	.
.	.	.	16dd\K)	.	.
4F\	(8a-L 8d/	.	(8.dd\	3	.
.	8B-/J)	.	.	.	.
.	.	.	16dd\Jk))	.	.
=8	=8	=8	=8	=8	=8
(8BBB-\L	4r	.	(8.cc\L	.	.
8BB-\J)	.	.	.	.	.
.	.	.	16b-\K)	.	.
4D\	(8fL 8F</	.	(8.b-\	.	.
.	8B-</J)	.	.	.	.
.	.	.	16a-\Jk)	.	.
(8CC\L	4r	.	(4a-/	.	.
8C\J)	.	.	.	.	.
4E-\	(8fL 8G</	.	4g/)	.	.
.	8c</J)	.	.	.	.
!!LO:LB:g=original
=9	=9	=9	=9	=9	=9
*xywh-3:246,3961,3384,803	*xywh-3:246,3961,3384,803	*	*xywh-3:245,3647,3414,407	*	*
(8GG/L	4r	.	8r	.	.
!	!	!	!LO:TX:t=P:problem:up bow symbol inverted:global:	!	!LO:DY:rj
8BB-/J)	.	.	(8b-v\L	3	p
4E-\	(8e-L 8G/	.	8cc\	.	.
.	8B-/J)	.	8b-\J)	.	.
(8FF/L	4r	.	(8.b-/L	.	.
8C/J)	.	.	.	.	.
.	.	.	16a-/K)	.	.
4F\	(8e-L 8A-/	.	(8.a-/	.	.
.	8c/J)	.	.	.	.
.	.	.	16g/Jk)	.	.
=10	=10	=10	=10	=10	=10
*	*^	*	*	*	*
*xywh-3:246,3961,3384,803	*xywh-3:246,3961,3384,803	*xywh-3:246,3961,3384,803	*	*xywh-3:245,3647,3414,407	*	*
(8FF/L	4r	2ryy	.	(8.g/L	.	.
8C/J)	.	.	.	.	.	.
.	.	.	.	16f/K)	.	.
4E-\	(8e-L 8An/	.	.	(8.f/	.	.
.	8c/J)	.	.	.	.	.
.	.	.	.	16e-/Jk)	.	.
*	*	*	*	*	*below	*
!	!	!	!	!	!	!LO:HP:a
(8BBB-/L	4r	4ryy	.	(4.g/	2	>
!LO:MO:mod=!LO&colon;TX&colon;a&colon;i&colon;t=ritard.	!	!	!	!LO:MO:mod=!LO&colon;TX&colon;a&colon;i&colon;t=ritard.	!	!
!LO:TX:a:t=ritard.	!	!	!	!LO:TX:a:t=ritard.	!	!
8BB-/J)	.	.	.	.	.	.
4BBB-/	4d/	(>8B-\L	.	.	.	.
.	.	8A-X\J)	.	8f/)	2	]
*	*v	*v	*	*	*	*
=11	=11	=11	=11	=11	=11
(8EE-\L	(>8e-L 8G/	pp	2.e-/	.	.
8BB-\	8G/	.	.	.	.
8E-\	8B-/	.	.	.	.
8G\J	8e-/J	.	.	.	.
8B-\L	8g/L	.	.	.	.
8e-\	8b-/	.	.	.	.
8b- 8d\	8gg/	.	4r	.	.
8a-\J	8ff/J	.	.	.	.
=12	=12	=12	=12	=12	=12
8g\L	8ee-/L	.	1r	.	.
8e-\	8b-/	.	.	.	.
8B-\	8g/	.	.	.	.
8G\J	8e-/J)	.	.	.	.
4E- 4EE-/)	2r	.	.	.	.
4r	.	.	.	.	.
!!LO:PB:g=original
=13	=13	=13	=13	=13	=13
*xywh-4:698,1118,3276,764	*xywh-4:698,1118,3276,764	*	*xywh-4:713,689,3319,477	*	*
!	!	!	!	!	!LO:MO:mod=.
2BB- 2BBB-\	8r	.	8r	.	mf
!	!	!	!LO:TX:a:t=Sul D_:dur=7qe:ext=ud:problem:text with extention lines	!	!
!	!	!	!LO:MO:mod=!LO&colon;TX&colon;a&colon;i&colon;t=strindendo	!	!
!	!	!	!LO:TX:b:t=stringendo.	!	!LO:MO:null:mod=mf <
.	4f 4d 4F</	.	(8fv/L	.	.
*	*	*	*	*above	*
.	.	.	8.b-/)	3	.
.	8f 8d 8F</	.	.	.	.
.	.	.	16b-/Jk	.	.
2C 2CC\	8r	.	(8.b-/L	.	.
.	4f 4e- 4F</	.	.	.	.
.	.	.	16an/Jk)	.	.
!	!	!	!	!	!LO:MO:mod=.
.	.	.	4a/	.	<
.	8f 8e- 8F</	.	.	.	.
=14	=14	=14	=14	=14	=14
2e-\	8r	.	8r	.	.
.	4an 4f/	.	(8ccv\L	2	.
.	.	.	8.ff\	4	.
.	8a 8f/	.	.	.	.
!	!	!	!	!	!LO:MO:null:mod=[
.	.	.	16cc\Jk)	4	.
2d\	8r	.	(8.cc\L	.	.
.	4a-X 4f/	.	.	.	.
!	!	!	!	!	!LO:MO:mod=.
.	.	.	16bn\Jk)	.	[
.	.	.	4b\	.	.
.	8a- 8f/	.	.	.	.
=15	=15	=15	=15	=15	=15
4E-^\	8r	.	16r	.	.
.	.	.	16bnv\	.	.
!	!	!LO:HP:a	!	!	!
.	8g 8c 8G/	<	(4cc\	.	.
4BBn^/	8r	.	.	.	.
.	8g 8f 8d 8G/	.	8dd\)	1	.
4C^/	8r	.	8.ee-\L	.	.
.	8g 8e- 8G/	.	.	.	.
.	.	.	16ee-\Jk	.	.
4D^\	8r	.	(4gg^\	.	.
.	8g 8f 8Bn 8G/	[	.	.	.
=16	=16	=16	=16	=16	=16
8E-\	8r	.	8ee-\L)	.	.
*	*^	*	*	*	*
*xywh-4:698,1118,3276,764	*xywh-4:698,1118,3276,764	*xywh-4:698,1118,3276,764	*	*xywh-4:713,689,3319,477	*	*
!	!	!	!LO:HP:a	!	!	!LO:HP:a
4G\	4g 4e-/	4.ryy	>	(8dd\	.	>
.	.	.	.	8cc\	.	.
8c\	8g 8e-/	.	.	8g\J)	.	]
.	.	.	.	(8qg/	.	.
8FF/	(4g-X/	2e-\	.	(4b-X/)	3	.
(4c^\	.	.	.	.	.	.
.	4f/)	.	]	4an/)	.	.
8F\)	.	.	.	.	.	.
*	*v	*v	*	*	*	*
=17	=17	=17	=17	=17	=17
*xywh-4:660,2144,3339,730	*xywh-4:660,2144,3339,730	*xywh-4:660,2144,3339,730	*	*xywh-4:645,1766,3305,447	*
!	!	!	!	!	!LO:MO:mod=.
2BB- 2BBB-\	8r	.	8r	.	mf
!	!	!	!LO:TX:a:t=Sul D_:dur=7qe:ext=ud:problem:text with extention lines	!	!LO:MO:null:mod=mf <
.	4f 4d 4F</	.	(8fv/L	.	.
.	.	.	8.b-/)	3	.
!	!	!	!	!	!LO:MO:mod=.
.	8f 8d 8F</	.	.	.	<
.	.	.	16b-/Jk	.	.
2C 2CC\	8r	.	(8.b-/L	.	.
.	4f 4e- 4F</	.	.	.	.
.	.	.	16an/Jk)	.	.
.	.	.	4a/	.	.
.	8f 8e- 8F</	.	.	.	.
!!LO:LB:g=original
=18	=18	=18	=18	=18	=18
2e-^\	8r	.	8r	.	.
.	4an 4f/	.	(8ccv\L	2	.
.	.	.	8ff\	4	.
.	8a 8f/	.	8cc\J)	4	[
2d^\	8r	.	(8.cc\L	.	.
.	4a-X 4f/	.	.	.	.
.	.	.	16bn\Jk)	.	.
.	.	.	4b\	.	.
.	8a- 8f/	.	.	.	.
=19	=19	=19	=19	=19	=19
4E-^\	8r	.	16r	.	.
!	!	!	!LO:MO:mod=!LO&colon;TX&colon;a&colon;i&colon;t=appassionato	!	!
!	!	!	!LO:TX:b:t=appassionato.	!	!
.	.	.	16bnv\	.	.
.	8g 8c 8G/	.	(4cc\	.	.
4BBn^/	8r	.	.	.	.
.	8g 8f 8d 8G/	.	8dd\)	1	.
2C/	8r	.	(4.ee-\	.	.
.	4g 4e- 4G/	.	.	.	.
*	*	*	*	*below	*
.	8r	.	8g/)	1	.
=20	=20	=20	=20	=20	=20
!	!	!	!	!	!LO:HP:a
4FF/	8r	.	(8g/L	.	>
.	(8f/L	.	8an/	.	.
4An 4F\	8en/	.	8ddo</	3	.
.	8e-X/J)	.	8cc/J)	4	]
!	!LO:SIC:s=8dL	!	!	!	!
8B-L 8BB-\	(8d/L	.	2b-/	.	.
!	!LO:SIC:s=(8a-X 8e-	!	!	!	!
(8c\	8a-X 8e-/	.	.	.	.
8B-\	8g 8d/	.	.	.	.
8A-X\J)	8f/J)	.	.	.	.
=21	=21	=21	=21	=21	=21
!LO:MO:mod=*null:null	!	!	!	!	!
*Xtuplet	*	*	*	*	*
!	!	!LO:MO:null:mod=p	!	!	!
(12EE-\L	4r	.	8r	.	.
!	!	!	!	!	!LO:MO:mod=.
12BB-\	.	.	.	.	p
!	!	!	!LO:MO:mod=!LO&colon;TX&colon;a&colon;i&colon;t=agitato	!	!
!	!	!	!LO:TX:b:t=agitato	!	!LO:MO:null:mod=p
.	.	.	8e-u/L	.	.
!	!	!LO:MO:mod=.	!	!	!
12E-\J)	.	p	.	.	.
(12E-\L	4B- 4G/	.	8d/	.	.
12BB-\	.	.	.	.	.
.	.	.	8e-/J	.	.
12EE-\J)	.	.	.	.	.
(12EE-\L	4r	.	(8en/L	.	.
12C-X\	.	.	.	.	.
.	.	.	8f/)	.	.
12E-\J)	.	.	.	.	.
(12E-\L	4c-X 4A-/	.	8f`/	.	.
12C-\	.	.	.	.	.
.	.	.	(8f/J	.	.
12EE-\J)	.	.	.	.	.
=22	=22	=22	=22	=22	=22
(12EE-\L	4r	.	8a-/L)	.	.
12BB-\	.	.	.	.	.
.	.	.	(8a-'^/	.	.
12D\J)	.	.	.	.	.
(12D\L	4b- 4A-/	.	(8.g'^/	.	.
12BB-\	.	.	.	.	.
12EE-\J)	.	.	.	.	.
.	.	.	16f#X/Jk))	.	.
(12EE-\L	4r	.	(4f#/	.	.
12BB-\	.	.	.	.	.
12E-\J)	.	.	.	.	.
(12E-\L	4e- 4G/	.	4g/)	.	.
12BB-\	.	.	.	.	.
12EE-\J)	.	.	.	.	.
!!LO:LB:g=original
=23	=23	=23	=23	=23	=23
*xywh-4:645,3128,3358,769	*xywh-4:645,3128,3358,769	*	*xywh-4:728,2763,3290,457	*	*
(12EE-\L	4r	.	8r	.	.
12BB-\	.	.	.	.	.
!	!	!	!LO:TX:a:t=Sul D_:dur=7qe:ext=ud:problem:text with extention lines	!	!
.	.	.	8gu/L	.	<
12E-\J)	.	.	.	.	.
(12E-\L	4e- 4B-/	<	8f#X/	.	.
12BB-\	.	.	.	.	.
.	.	.	8g/J	.	.
12EE-\J)	.	.	.	.	.
(12EE-\L	4r	.	(8g/L	.	.
12C\	.	.	.	.	.
.	.	.	8a-/)	.	.
12E-\J)	.	.	.	.	.
(12E-\L	4e- 4c/	.	8a-`/	.	.
12C\	.	.	.	.	.
.	.	.	(8a-/J	.	.
12EE-\J)	.	.	.	.	.
=24	=24	=24	=24	=24	=24
(12EE-\L	4r	.	8cc/L)	2	.
12D\	.	.	.	.	.
.	.	.	(8cc'^/	.	.
12A-\J)	.	.	.	.	.
(12A-\L	4f 4B-/	.	(8.b-'^/	.	.
12D\	.	.	.	.	.
12EE-\J)	.	.	.	.	.
.	.	.	16an/Jk))	.	.
(12EE-\L	4r	.	(4cc/	3	.
12E-\	.	.	.	.	.
12G\J)	.	.	.	.	.
!	!	!LO:MO:mod=.	!	!	!
12r	4g 4e-/	[	4b-/)	.	[
(12G\L	.	.	.	.	.
!	!	!LO:MO:null:mod=[[	!	!	!
12E-\J)	.	.	.	.	.
=25	=25	=25	=25	=25	=25
!	!	!LO:MO:null:mod=!LO&colon;DY&colon;ed=brack	!	!	!
!	!	!LO:MO:null:mod=ff	!	!	!
(12GG\L	4r	.	8r	.	.
!	!	!	!	!	!LO:MO:mod=.
12BB-\	.	.	.	.	ff
!	!	!	!	!	!LO:MO:null:mod=ff
.	.	.	8ee-u\L	.	.
12E-\J)	.	.	.	.	.
(12B-\L	4b- 4e-/	.	8ee-\	.	.
12E-\	.	.	.	.	.
.	.	.	8ee-\J	.	.
12BB-\J)	.	.	.	.	.
(12FF\L	8r	.	(8.ee-\L	.	.
12BB-\	.	.	.	.	.
.	(4a- 4f/	.	.	.	.
12D\J)	.	.	.	.	.
.	.	.	16dd\Jk)	.	.
(12B-\L	.	.	4dd\	.	.
12D\	.	.	.	.	.
.	8f 8d/)	.	.	.	.
12BB-\J)	.	.	.	.	.
=26	=26	=26	=26	=26	=26
(12GG\L	4r	.	8r	.	.
12D\	.	.	.	.	.
.	.	.	(8ee-v\L	.	.
12E-\J)	.	.	.	.	.
.	.	.	8qgg/	.	.
(12B-\L	4b- 4e-/	.	8.ff\	.	.
12E-\	.	.	.	.	.
12BB-\J)	.	.	.	.	.
.	.	.	16ee-\Jk)	.	.
(12FF#X\L	8r	.	(8.ee-\L	.	.
12AAn\	.	.	.	.	.
.	(4an 4f#X/	.	.	.	.
12D\J)	.	.	.	.	.
.	.	.	16dd\Jk)	.	.
(12An\L	.	.	4dd\	.	.
12D\	.	.	.	.	.
.	8f# 8d/)	.	.	.	.
12AA\J)	.	.	.	.	.
!!LO:LB:g=original
=27	=27	=27	=27	=27	=27
*xywh-4:631,4161,3422,822	*xywh-4:631,4161,3422,822	*	*xywh-4:704,3859,3256,355	*	*
(12FFn\L	8r	.	8r	.	.
12AA-X\	.	.	.	.	.
.	4.a-X 4.d/	.	(8dd'^u\L	.	>
!	!	!	!	!	!LO:MO:mod=.
12D\J)	.	.	.	.	>
(12A-X\L	.	.	8cc'^\	.	.
12D\	.	.	.	.	.
.	.	.	8bn'^\J)	.	.
12AA-\J)	.	.	.	.	.
(12EEn\L	8r	.	(8.dd\L	.	.
12GG\	.	.	.	.	.
.	4g 4en/	.	.	.	.
12C\J)	.	.	.	.	.
.	.	.	16cc\Jk)	.	.
!	!	!	!	!	!LO:MO:mod=]
(12G\L	.	.	4cc\	.	]]
12C\	.	.	.	.	.
.	8g 8e/	.	.	.	.
12GG\J)	.	.	.	.	.
=28	=28	=28	=28	=28	=28
(12EE-X\L	8r	.	8r	.	.
!	!	!	!	!	!LO:MO:mod=.
12GG-X\	.	.	.	.	p
!	!	!	!	!	!LO:MO:null:mod=p
.	4.g-X 4.c/	.	8cc^u\L	.	.
12C\J)	.	.	.	.	.
(12G-X\L	.	.	8b-^\	.	.
12C\	.	.	.	.	.
.	.	.	8an^\J	.	.
12GG-\J)	.	.	.	.	.
(12DD\L	8r	.	(8.cc\L	.	.
12FF\	.	.	.	.	.
.	4f 4d/	.	.	.	.
12BB-\J)	.	.	.	.	.
.	.	.	16b-\Jk)	.	.
(12F\L	.	.	[4b-\	.	.
12BB-\	.	.	.	.	.
.	8f 8d/	.	.	.	.
12FF\J)	.	.	.	.	.
=29	=29	=29	=29	=29	=29
(12DD\L	8r	.	4b-\]	.	.
12FF\	.	.	.	.	.
!	!LO:MO:mod=!LO&colon;TX&colon;b&colon;i&colon;t=animato	!	!LO:MO:mod=!LO&colon;TX&colon;a&colon;i&colon;t=animato	!	!
!	!LO:TX:b:t=animato.	!	!LO:TX:a:t=animato.	!	!
.	(8b-/	.	.	.	.
12BB-\J)	.	.	.	.	.
(12F\L	8dL 8B-/	.	2b-\	.	.
12BB-\	.	.	.	.	.
.	8b-/J)	.	.	.	.
12FF\J)	.	.	.	.	.
(12EE-\L	8r	.	.	.	.
12GG-X\	.	.	.	.	.
.	(8b-/	.	.	.	.
12BB-\J)	.	.	.	.	.
(12G-X\L	8e-L 8B-/	.	[4b-\	.	.
12BB-\	.	.	.	.	.
.	8b-/J)	.	.	.	.
12GG-\J)	.	.	.	.	.
=30	=30	=30	=30	=30	=30
!	!LO:TX:b:t=cres_cen_do.:problem:dynamics with extention lines	!LO:HP:t=cres_cen_do.	!	!	!
(12EEn\L	8r	<	4b-\]	.	.
12GGn\	.	.	.	.	.
.	(8b-/	.	.	.	.
12BB-\J)	.	.	.	.	.
!	!LO:MO:mod=!LO&colon;TX&colon;b&colon;i&colon;t=ritard.	!	!LO:MO:mod=!LO&colon;TX&colon;a&colon;i&colon;t=ritard.	!	!
!	!LO:TX:a:t=ritard.	!	!LO:TX:a:t=ritard.	!	!
(12Gn\L	8enL 8B-/	.	2b-\	.	.
12BB-\	.	.	.	.	.
.	8b-/J)	.	.	.	.
12GG\J)	.	.	.	.	.
(16FF\LL	8b-L 8a- 8f 8B-/	.	.	.	.
16AA-\	.	.	.	.	.
16D\	(16d/L	.	.	.	.
16A-\JJ	16a-/JJ	.	.	.	.
16c\LL	16cc/LL	.	4B-/	.	.
16B-\	16b-/	.	.	.	.
16A-\	16a-/	.	.	.	.
16F\JJ)	16f/JJ)	[[	.	.	.
!!LO:PB:g=original
=31	=31	=31	=31	=31	=31
*xywh-5:241,1086,3335,864	*xywh-5:241,1086,3335,864	*	*xywh-5:227,639,3379,538	*	*
!	!	!	!LO:TX:a:t=Sul G_:dur=24q:ext=ud:problem:text with extention lines	!	!
!	!LO:TX:a:B:t=a tempo.	!LO:DY:rj	!LO:TX:a:B:t=a tempo.	!	!
!	!	!	!LO:MO:mod=!null:null	!	!
!LO:TX:t=P:problem:mixed beam	!	!	!LO:TX:b:t=grandioso.	!	!LO:DY:rj
16EE-LL 16EEE-/	16r	ff	(4.g/	.	ff
!	!LO:MO:mod=!LO&colon;TX&colon;b&colon;i&colon;t=grandioso	!	!LO:MO:mod=!LO&colon;TX&colon;b&colon;i&colon;t=[grandioso]	!	!
!	!LO:TX:b:t=grandioso.	!	!null	!	!
(16G\	(16g\LL	.	.	.	.
16B-\	16b-\	.	.	.	.
16e-\JJ)	16ee-\JJ)	.	.	.	.
4.e- 4.B- 4.E-\	2gg 2ee- 2b- 2g^\	.	.	.	.
.	.	.	8d/)	.	.
.	.	.	(8f^/L	.	.
8GG 8GGG/	.	.	8e-^/	.	.
4G 4E- 4BB- 4GG^/	4b- 4e- 4B-^/	.	8B-^/	.	.
.	.	.	8G^/J)	.	.
=32	=32	=32	=32	=32	=32
!	!	!	!LO:MO:mod=!LO&colon;TX&colon;a&colon;i&colon;t=con fuoco	!	!
!	!	!	!LO:TX:a:t=con fuoco.	!	!
!	!	!	!LO:SIC:s=(12G^L	!	!
8FL 8FF\	(8.cc-XL 8.e- 8.c-X/	.	12G^/L	.	.
.	.	.	12.A-^/	.	.
8A- 8F\	.	.	.	.	.
.	16f/Jk)	.	.	.	.
!	!	!	!LO:SIC:s=24c-^Jk)	!	!
.	.	.	24c-X^/Jk	.	.
8c-X 8A-\	4f 4e-/	.	(2c-^/	.	.
8A-J 8F\	.	.	.	.	.
8BB-\L	8.r	.	.	.	.
8A- 8F\	.	.	.	.	.
.	16f 16d/	.	.	.	.
8B- 8A-\	4b- 4f/	.	4B-/)	.	.
8A-J 8F\	.	.	.	.	.
=33	=33	=33	=33	=33	=33
8EE- 8EEE-/	16r	.	(4.g/	.	.
.	16b- 16g/	.	.	.	.
4g 4B- 4G^<\	4gg 4b-^\	.	.	.	.
8d\	8dd\	.	8d/)	.	.
(8fL 8B- 8G\	(8ffL 8b- 8g\	.	(8f^/L	.	.
8e-\)	8ee-\)	.	8e-^/	.	.
8B-\	8b-\	.	8B-^/	.	.
8G\J	8g\J	.	8G^/J)	.	.
=34	=34	=34	=34	=34	=34
8FL 8FF\	(8.cc-XL 8.e- 8.c-X/	.	(12G^/L	.	.
.	.	.	12.A-^/	.	.
8A- 8F\	.	.	.	.	.
.	16f/Jk)	.	.	.	.
.	.	.	24c-X^/Jk)	.	.
8c-X 8A-\	4f 4e-/	.	(2c-/	.	.
8A-J 8F\	.	.	.	.	.
8BB-\L	8.r	.	.	.	.
8A- 8F\	.	.	.	.	.
.	16f 16d/	.	.	.	.
8B- 8A-\	4b- 4f/	.	4B-/)	.	.
8A-J 8F\	.	.	.	.	.
=35	=35	=35	=35	=35	=35
4EE- 4EEE-\	4E-</	.	16r	.	.
!	!	!	!LO:MO:mod=!LO&colon;TX&colon;a&colon;i&colon;t=animato	!	!
!	!	!	!LO:TX:a:t=animato.	!	!
.	.	.	(16B-/	1	.
.	.	.	4e-^/	.	.
4d-X 4B-^ 4E-\	4ee- 4b- 4g 4e-^>/	.	.	.	.
.	.	.	8Bn/)	.	.
4AA- 4AAA-\	4A-</	.	(8B/L	.	.
.	.	.	8c/	2	.
4A-^ 4E-\	4ee- 4a- 4e-^>/	.	8d-X/	.	.
.	.	.	8c/J)	.	.
!!LO:LB:g=original
=36	=36	=36	=36	=36	=36
*xywh-5:231,2115,3340,820	*xywh-5:231,2115,3340,820	*	*xywh-5:227,1746,3320,470	*	*
4GG 4GGG\	4G</	.	16r	.	.
.	.	.	(16d/	1	.
.	.	.	4g/	.	.
4f 4d 4G^<\	4gg 4dd 4bn 4g^\	.	.	.	.
.	.	.	8d/)	.	.
4C 4CC\	4c</	.	(8d/L	.	.
.	.	.	8e-/	1	.
4c^ 4G\	4gg 4cc 4g^\	.	8f/	.	.
.	.	.	8e-/J)	.	.
=37	=37	=37	=37	=37	=37
*tremolo	*	*	*	*	*
32FF/LLL	16r	.	4r	.	.
32F/	.	.	.	.	.
32FF/	16e- 16c-X/	.	.	.	.
32F/	.	.	.	.	.
32FF/	(4a-/	.	.	.	.
32F/	.	.	.	.	.
32FF/	.	.	.	.	.
32F/	.	.	.	.	.
32FF/	.	.	8.r	.	.
32F/	.	.	.	.	.
32FF/	.	.	.	.	.
32F/	.	.	.	.	.
!	!	!	!LO:TX:a:t=Sul A_:dur=5e:ext=ud:problem:text with extention lines	!	!
32FF/	8e-/)	.	.	.	.
!	!	!	!	!	!LO:MO:mod=.
32F/	.	.	.	.	p
!	!	!LO:DY:b=2	!	!	!LO:MO:mod=p >
!	!	!LO:MO:mod=.	!	!	!
32FF/	.	p	16ee-u\	.	>
32F/JJJ	.	.	.	.	.
!	!	!LO:MO:mod=p >	!	!	!
32FF/LLL	4r	>	(4.aa-\	.	.
32F/	.	.	.	.	.
32FF/	.	.	.	.	.
32F/	.	.	.	.	.
32FF/	.	.	.	.	.
32F/	.	.	.	.	.
32FF/	.	.	.	.	.
32F/	.	.	.	.	.
32FF/	4c- 4A-/	]	.	.	.
32F/	.	.	.	.	.
32FF/	.	.	.	.	.
32F/	.	.	.	.	.
32FF/	.	.	8ee-\)	.	.
32F/	.	.	.	.	]
32FF/	.	.	.	.	.
32F/JJJ	.	.	.	.	.
=38	=38	=38	=38	=38	=38
*	*	*^	*	*	*
32BBB-/LLL	16r	.	f	4r	.	.
32BB-/	.	.	.	.	.	.
32BBB-/	16d 16A-^>/	>	.	.	.	.
32BB-/	.	.	.	.	.	.
32BBB-/	(4a-/	.	.	.	.	.
32BB-/	.	.	.	.	.	.
32BBB-/	.	.	.	.	.	.
32BB-/	.	.	.	.	.	.
32BBB-/	.	.	.	8.r	.	.
32BB-/	.	.	.	.	.	.
32BBB-/	.	.	.	.	.	.
32BB-/	.	.	.	.	.	.
!	!LO:MO:mod=!LO&colon;TX&colon;a&colon;i&colon;t=ritard.	!	!	!	!	!
!	!LO:TX:a:t=ritard.	!	!	!LO:TX:a:t=Sul A_:dur=7e:ext=ud:problem:text with extention lines	!	!
32BBB-/	8e-/)	.	.	.	.	.
!	!	!	!	!	!	!LO:MO:mod=.
32BB-/	.	.	.	.	.	p
!	!	!	!LO:DY:b=2	!	!	!LO:MO:null:mod=p >
!	!	!LO:MO:null:mod=]]	!LO:MO:mod=.	!	!	!
32BBB-/	.	.	p	16ddu\	.	.
32BB-/JJJ	.	.	.	.	.	.
32BBB-/LLL	4r	.	p	(4.ccc\	4	.
32BB-/	.	.	.	.	.	.
32BBB-/	.	.	.	.	.	.
32BB-/	.	.	.	.	.	.
32BBB-/	.	.	.	.	.	.
32BB-/	.	.	.	.	.	.
32BBB-/	.	.	.	.	.	.
32BB-/	.	.	.	.	.	.
32BBB-/	4B- 4A-/	.	.	.	.	.
32BB-/	.	.	.	.	.	.
32BBB-/	.	.	.	.	.	.
32BB-/	.	.	.	.	.	.
32BBB-/	.	.	.	8dd\)	1	.
!	!	!	!	!	!	!LO:MO:null:mod=]
32BB-/	.	.	.	.	.	.
32BBB-/	.	.	.	.	.	.
!	!	!LO:MO:mod=.	!	!	!	!
32BB-/JJJ	.	]	.	.	.	.
*Xtremolo	*	*	*	*	*	*
*	*	*v	*v	*	*	*
=39	=39	=39	=39	=39	=39
(8EE-\L	8B- 8G/	.	4ee-\	.	.
8BB-\	4e- 4G/	.	.	.	.
8E-\	.	.	4r	.	.
8B-\J)	[8e- [8G/	.	.	.	.
(8EE-\L	2g 2e-] 2G/]	.	2r	.	.
8BB-\	.	.	.	.	.
8E-\	.	.	.	.	.
8B-\J)	.	.	.	.	.
=40	=40	=40	=40	=40	=40
(8EE-\L	8r	.	1r	.	.
8BB-\	4e- 4G/	.	.	.	.
8E-\	.	.	.	.	.
8B-\J)	[8e- [8G/	.	.	.	.
(8EE-\L	2g 2e-] 2G/]	.	.	.	.
8BB-\	.	.	.	.	.
8E-\	.	.	.	.	.
8B-\J)	.	.	.	.	.
!!LO:LB:g=original
=41	=41	=41	=41	=41	=41
*	*	*	*^	*	*
*xywh-5:237,3188,3349,718	*xywh-5:237,3188,3349,718	*	*xywh-5:280,2809,3272,470	*xywh-5:280,2809,3272,470	*	*
*tremolo	*	*	*	*	*	*
!	!	!	!LO:MO:mod=!LO&colon;TX&colon;a&colon;i&colon;t=Beaucoup de ton	!	!	!
!	!	!LO:MO:null:mod=p	!LO:TX:a:t=Beaucoup de ton.	!	!	!
32EE-/LLL	4r	.	8r	(>8G\	.	.
32BB-/	.	.	.	.	.	.
32EE-/	.	.	.	.	.	.
32BB-/	.	.	.	.	.	.
!	!	!LO:MO:mod=.	!	!	!	!
32EE-/	.	p	8e-u/L)	8r	.	.
32BB-/	.	.	.	.	.	.
32EE-/	.	.	.	.	.	.
32BB-/	.	.	.	.	.	.
32EE-/	(4B-/	.	(8d/	8B-\	.	.
32BB-/	.	.	.	.	.	.
32EE-/	.	.	.	.	.	.
32BB-/	.	.	.	.	.	.
32EE-/	.	.	8e-/J)	8r	.	.
32BB-/	.	.	.	.	.	.
32EE-/	.	.	.	.	.	.
32BB-/JJJ	.	.	.	.	.	.
32EE-/LLL	4c-X/	.	(8en/L	8A-\	.	.
32BB-/	.	.	.	.	.	.
32EE-/	.	.	.	.	.	.
32BB-/	.	.	.	.	.	.
32EE-/	.	.	8f/)	8r	.	.
32BB-/	.	.	.	.	.	.
32EE-/	.	.	.	.	.	.
32BB-/	.	.	.	.	.	.
32EE-/	4A-/)	.	8f/	8c-X\	.	.
32BB-/	.	.	.	.	.	.
32EE-/	.	.	.	.	.	.
32BB-/	.	.	.	.	.	.
32EE-/	.	.	8f/J	8r	.	.
32BB-/	.	.	.	.	.	.
32EE-/	.	.	.	.	.	.
32BB-/JJJ	.	.	.	.	.	.
=42	=42	=42	=42	=42	=42	=42
32EE-/LLL	(2d/	.	(8a-/L	8B-\	.	.
32BB-/	.	.	.	.	.	.
32EE-/	.	.	.	.	.	.
32BB-/	.	.	.	.	.	.
!	!	!	!	!LO:N:vis=4..	!	!
32EE-/	.	.	8a-/	4B-\	.	.
32BB-/	.	.	.	.	.	.
32EE-/	.	.	.	.	.	.
32BB-/	.	.	.	.	.	.
32EE-/	.	.	8.g/	.	.	.
32BB-/	.	.	.	.	.	.
32EE-/	.	.	.	.	.	.
32BB-/	.	.	.	.	.	.
32EE-/	.	.	.	16ryy	.	.
32BB-/	.	.	.	.	.	.
32EE-/	.	.	16f#X/Jk)	16An\	.	.
32BB-/JJJ	.	.	.	.	.	.
32EE-/LLL	2e-/)	.	(4f#/	4A\	.	.
32BB-/	.	.	.	.	.	.
32EE-/	.	.	.	.	.	.
32BB-/	.	.	.	.	.	.
32EE-/	.	.	.	.	.	.
32BB-/	.	.	.	.	.	.
32EE-/	.	.	.	.	.	.
32BB-/	.	.	.	.	.	.
32EE-/	.	.	4g/)	4B-\	.	.
32BB-/	.	.	.	.	.	.
32EE-/	.	.	.	.	.	.
32BB-/	.	.	.	.	.	.
32EE-/	.	.	.	.	.	.
32BB-/	.	.	.	.	.	.
32EE-/	.	.	.	.	.	.
32BB-/JJJ	.	.	.	.	.	.
=43	=43	=43	=43	=43	=43	=43
*	*	*	*	*	*^	*
*xywh-5:237,3188,3349,718	*xywh-5:237,3188,3349,718	*	*	*	*below	*above	*
32EE-/LLL	4r	.	8r	(>8B-\	1	.	.
32BB-/	.	.	.	.	.	.	.
32EE-/	.	.	.	.	.	.	.
32BB-/	.	.	.	.	.	.	.
32EE-/	.	.	8gu/L)	8r	.	.	.
32BB-/	.	.	.	.	.	.	.
32EE-/	.	.	.	.	.	.	.
32BB-/	.	.	.	.	.	.	.
32EE-/	(4B-/	.	(8f#X/	8e-\	4	1	.
32BB-/	.	.	.	.	.	.	.
32EE-/	.	.	.	.	.	.	.
32BB-/	.	.	.	.	.	.	.
32EE-/	.	.	8g/J)	8r	.	.	.
32BB-/	.	.	.	.	.	.	.
32EE-/	.	.	.	.	.	.	.
32BB-/JJJ	.	.	.	.	.	.	.
32EE-/LLL	4e-/	.	8r	(>8c\	1	.	.
32BB-/	.	.	.	.	.	.	.
32EE-/	.	.	.	.	.	.	.
32BB-/	.	.	.	.	.	.	.
32EE-/	.	.	8a-u/L)	8r	.	.	.
32BB-/	.	.	.	.	.	.	.
32EE-/	.	.	.	.	.	.	.
32BB-/	.	.	.	.	.	.	.
32EE-/	4c/)	.	8a-/	8e-\	.	.	.
32BB-/	.	.	.	.	.	.	.
32EE-/	.	.	.	.	.	.	.
32BB-/	.	.	.	.	.	.	.
32EE-/	.	.	8a-/J	8r	.	.	.
32BB-/	.	.	.	.	.	.	.
32EE-/	.	.	.	.	.	.	.
32BB-/JJJ	.	.	.	.	.	.	.
*	*	*	*v	*v	*	*	*
=44	=44	=44	=44	=44	=44	=44
!	!	!	!LO:TX:a:t=Sul G e D_:dur=4q:ext=ud:problem:text with extention lines	!	!	!
32EE-/LLL	(2d/	.	8ccL 8a-/	4	2	.
32BB-/	.	.	.	.	.	.
32EE-/	.	.	.	.	.	.
32BB-/	.	.	.	.	.	.
32EE-/	.	.	(8cc 8a-/	.	.	.
32BB-/	.	.	.	.	.	.
32EE-/	.	.	.	.	.	.
32BB-/	.	.	.	.	.	.
32EE-/	.	.	8.b- 8.g/	3	1	.
32BB-/	.	.	.	.	.	.
32EE-/	.	.	.	.	.	.
32BB-/	.	.	.	.	.	.
32EE-/	.	.	.	.	.	.
32BB-/	.	.	.	.	.	.
32EE-/	.	.	16anJk 16f#X/)	3	1	.
32BB-/JJJ	.	.	.	.	.	.
32EE-/LLL	2e-/)	.	(4cc 4a-X/	4	2	.
32BB-/	.	.	.	.	.	.
32EE-/	.	.	.	.	.	.
32BB-/	.	.	.	.	.	.
32EE-/	.	.	.	.	.	.
32BB-/	.	.	.	.	.	.
32EE-/	.	.	.	.	.	.
32BB-/	.	.	.	.	.	.
32EE-/	.	.	4b- 4g/)	.	.	.
32BB-/	.	.	.	.	.	.
32EE-/	.	.	.	.	.	.
32BB-/	.	.	.	.	.	.
32EE-/	.	.	.	.	.	.
32BB-/	.	.	.	.	.	.
32EE-/	.	.	.	.	.	.
32BB-/JJJ	.	.	.	.	.	.
*	*	*	*	*v	*v	*
=45	=45	=45	=45	=45	=45
*	*	*	*^	*	*
*	*	*	*xywh-5:280,2809,3272,470	*xywh-5:280,2809,3272,470	*	*
32BBB-/LLL	4r	.	8r	(>8g\	1	.
32BB-/	.	.	.	.	.	.
32BBB-/	.	.	.	.	.	.
32BB-/	.	.	.	.	.	.
32BBB-/	.	.	8ee-u/L)	8r	.	.
32BB-/	.	.	.	.	.	.
32BBB-/	.	.	.	.	.	.
32BB-/	.	.	.	.	.	.
32BBB-/	(4g/	.	8ee-/	8b-\	.	.
32BB-/	.	.	.	.	.	.
32BBB-/	.	.	.	.	.	.
32BB-/	.	.	.	.	.	.
32BBB-/	.	.	8ee-/J	8r	.	.
32BB-/	.	.	.	.	.	.
32BBB-/	.	.	.	.	.	.
32BB-/JJJ	.	.	.	.	.	.
32BBB-/LLL	4a-/	.	(8.ee-/L	8f\	2	.
32BB-/	.	.	.	.	.	.
32BBB-/	.	.	.	.	.	.
32BB-/	.	.	.	.	.	.
32BBB-/	.	.	.	8r	.	.
32BB-/	.	.	.	.	.	.
32BBB-/	.	.	16dd/K)	.	.	.
32BB-/	.	.	.	.	.	.
32BBB-/	4f/)	.	(8.dd/	8a-\	.	.
32BB-/	.	.	.	.	.	.
32BBB-/	.	.	.	.	.	.
32BB-/	.	.	.	.	.	.
32BBB-/	.	.	.	8r	.	.
32BB-/	.	.	.	.	.	.
32BBB-/	.	.	16cc/Jk)	.	.	.
32BB-/JJJ	.	.	.	.	.	.
!!LO:LB:g=original
=46	=46	=46	=46	=46	=46	=46
*xywh-5:290,4164,3272,854	*xywh-5:290,4164,3272,854	*	*xywh-5:300,3873,3238,422	*xywh-5:300,3873,3238,422	*	*
!	!LO:S:s=2:note:problem:note-level slur	!	!	!	!	!
32BBB-/LLL	(2dd (<2f (2d/	.	(8.cc/L	8d\	.	.
32BB-/	.	.	.	.	.	.
32BBB-/	.	.	.	.	.	.
32BB-/	.	.	.	.	.	.
32BBB-/	.	.	.	8r	.	.
32BB-/	.	.	.	.	.	.
32BBB-/	.	.	16b-/K)	.	.	.
32BB-/	.	.	.	.	.	.
32BBB-/	.	.	(8.b-/	8f\	.	.
32BB-/	.	.	.	.	.	.
32BBB-/	.	.	.	.	.	.
32BB-/	.	.	.	.	.	.
32BBB-/	.	.	.	8r	.	.
32BB-/	.	.	.	.	.	.
32BBB-/	.	.	16a-/Jk)	.	.	.
32BB-/JJJ	.	.	.	.	.	.
!	!LO:S:s=2:note:problem:note-level slur	!	!	!	!	!
32BBB-/LLL	2ee-) 2b-) 2e-/)	.	(4a-/	2B-\	.	.
32BB-/	.	.	.	.	.	.
32BBB-/	.	.	.	.	.	.
32BB-/	.	.	.	.	.	.
32BBB-/	.	.	.	.	.	.
32BB-/	.	.	.	.	.	.
32BBB-/	.	.	.	.	.	.
32BB-/	.	.	.	.	.	.
32BBB-/	.	.	4g/)	.	.	.
32BB-/	.	.	.	.	.	.
32BBB-/	.	.	.	.	.	.
32BB-/	.	.	.	.	.	.
32BBB-/	.	.	.	.	.	.
32BB-/	.	.	.	.	.	.
32BBB-/	.	.	.	.	.	.
32BB-/JJJ	.	.	.	.	.	.
=47	=47	=47	=47	=47	=47	=47
32BBB-/LLL	2g 2B- 2G/	.	8r	4G\	.	.
32BB-/	.	.	.	.	.	.
32BBB-/	.	.	.	.	.	.
32BB-/	.	.	.	.	.	.
32BBB-/	.	.	8b-u/L	.	.	.
32BB-/	.	.	.	.	.	.
32BBB-/	.	.	.	.	.	.
32BB-/	.	.	.	.	.	.
32BBB-/	.	.	(8cc/	(8c\L	.	.
32BB-/	.	.	.	.	.	.
32BBB-/	.	.	.	.	.	.
32BB-/	.	.	.	.	.	.
32BBB-/	.	.	8b-/J)	8en\J)	.	.
32BB-/	.	.	.	.	.	.
32BBB-/	.	.	.	.	.	.
32BB-/JJJ	.	.	.	.	.	.
!	!	!	!LO:MO:mod=!LO&colon;TX&colon;b&colon;i&colon;t=ten.	!	!	!
!	!	!	!LO:TX:b:t=ten.	!	!	!
32BBB-/LLL	2cc 2f 2c/	.	(8.b-/L	4f\	.	.
32BB-/	.	.	.	.	.	.
32BBB-/	.	.	.	.	.	.
32BB-/	.	.	.	.	.	.
32BBB-/	.	.	.	.	.	.
32BB-/	.	.	.	.	.	.
32BBB-/	.	.	16a-/K)	.	.	.
32BB-/	.	.	.	.	.	.
!	!	!	!LO:MO:mod=!LO&colon;TX&colon;b&colon;i&colon;t=ten.	!	!	!
!	!	!	!LO:TX:b:t=ten.	!	!	!
32BBB-/	.	.	(8.a-/	4A-\	.	.
32BB-/	.	.	.	.	.	.
32BBB-/	.	.	.	.	.	.
32BB-/	.	.	.	.	.	.
32BBB-/	.	.	.	.	.	.
32BB-/	.	.	.	.	.	.
32BBB-/	.	.	16g/Jk)	.	.	.
32BB-/JJJ	.	.	.	.	.	.
=48	=48	=48	=48	=48	=48	=48
*	*^	*	*	*	*	*
*xywh-5:290,4164,3272,854	*xywh-5:290,4164,3272,854	*xywh-5:290,4164,3272,854	*	*xywh-5:300,3873,3238,422	*xywh-5:300,3873,3238,422	*	*
!	!	!	!	!LO:MO:mod=!LO&colon;TX&colon;b&colon;i&colon;t=ten.	!	!	!
!	!	!	!	!LO:TX:b:t=ten.	!	!	!
32BBB-/LLL	2ee- 2cc 2e-/	2ryy	.	(8.g/L	4An\	.	.
32BB-/	.	.	.	.	.	.	.
32BBB-/	.	.	.	.	.	.	.
32BB-/	.	.	.	.	.	.	.
32BBB-/	.	.	.	.	.	.	.
32BB-/	.	.	.	.	.	.	.
32BBB-/	.	.	.	16f/K)	.	.	.
32BB-/	.	.	.	.	.	.	.
!	!	!	!	!LO:MO:mod=!LO&colon;TX&colon;b&colon;i&colon;t=ten.	!	!	!
!	!	!	!	!LO:TX:b:t=ten.	!	!	!
32BBB-/	.	.	.	(8.f/	4c\	.	.
32BB-/	.	.	.	.	.	.	.
32BBB-/	.	.	.	.	.	.	.
32BB-/	.	.	.	.	.	.	.
32BBB-/	.	.	.	.	.	.	.
32BB-/	.	.	.	.	.	.	.
32BBB-/	.	.	.	16e-/Jk)	.	.	.
32BB-/JJJ	.	.	.	.	.	.	.
!	!	!	!	!LO:MO:mod=!LO&colon;TX&colon;a&colon;i&colon;t=ritard.	!	!	!
!	!	!	!	!LO:TX:a:t=ritard.	!	!	!
32BBB-/LLL	(<4ee-/	2bb- 2b-\	.	(4.g/	(8B-\L	.	.
32BB-/	.	.	.	.	.	.	.
32BBB-/	.	.	.	.	.	.	.
32BB-/	.	.	.	.	.	.	.
32BBB-/	.	.	.	.	8An\J)	.	.
32BB-/	.	.	.	.	.	.	.
32BBB-/	.	.	.	.	.	.	.
32BB-/	.	.	.	.	.	.	.
32BBB-/	(<4dd/)	.	.	.	4A-X\	.	.
32BB-/	.	.	.	.	.	.	.
32BBB-/	.	.	.	.	.	.	.
32BB-/	.	.	.	.	.	.	.
!	!	!	!	!	!	!	!LO:HP:a
32BBB-/	.	.	.	8f/)	.	.	>
32BB-/	.	.	.	.	.	.	.
32BBB-/	.	.	.	.	.	.	.
32BB-/JJJ	.	.	.	.	.	.	.
*Xtremolo	*	*	*	*	*	*	*
*	*v	*v	*	*	*	*	*
*	*	*	*v	*v	*	*
=49	=49	=49	=49	=49	=49
*	*	*^	*	*	*^
!	!	!	!	!	!	!	!LO:DY:rj
4EE-/	4ee- 4b-\)	.	.	(8e-L 8G/	.	.	p
.	.	.	.	8G/	.	.	.
4r	4r	.	.	8B-/	.	]	.
.	.	.	.	8e-J 8G/	.	.	.
4r	4r	.	.	8gL 8B-/	.	.	.
.	.	.	.	8b- 8g/)	.	.	.
!LO:SIC:s=4B-	!	!LO:DY:a:rj	!LO:DY:a=2:rj	!	!	!	!
!	!	!LO:MO:mod=.	!	!	!	!	!
4B->\	4bb- 4dd\	pp	pp	(8gg 8b-/	.	.	.
.	.	.	.	8ffJ 8a-/)	.	.	.
*	*	*v	*v	*	*	*	*
*	*	*	*	*	*v	*v
=50	=50	=50	=50	=50	=50
2.e- 2.B- 2.E-\	2.eee- 2.gg 2.ee-\	.	(8ee-L 8g/	.	.
.	.	.	8b- 8e-/	.	.
.	.	.	8g 8B-/	.	.
.	.	.	8fJ 8A-/)	.	.
.	.	.	4e- 4G/	.	.
4r	4r	.	4r	.	.
!!LO:PB:g=original
=51	=51	=51	=51	=51	=51
*xywh-6:573,1008,3401,770	*xywh-6:573,1008,3401,770	*	*xywh-6:655,605,3308,495	*xywh-6:655,605,3308,495	*
!	!	!	!	!	!LO:MO:mod=.
2BB- 2BBB-\	8r	.	8r	.	mf
!	!	!	!	!	!LO:MO:mod=mf <
.	4f 4d 4F</	.	(8fv/L	.	<
.	.	.	8.b-/)	.	.
.	8f 8d 8F</	.	.	.	.
.	.	.	16b-/Jk	.	.
2C 2CC\	8r	.	(8.b-/L	.	.
.	4f 4e- 4F</	.	.	.	.
.	.	.	16an/Jk)	.	.
.	.	.	4a/	.	.
.	8f 8e- 8F</	.	.	.	.
=52	=52	=52	=52	=52	=52
2e-^\	8r	.	8r	.	.
*	*	*	*	*above	*
!	!	!	!LO:TX:a:t=Sul D_:dur=7e:ext=ud:problem:text with extention lines	!	!LO:MO:mod=.
.	4an 4f/	.	(8ccv\L	2	[
.	.	.	8ff\	4	.
!	!	!	!	!	!LO:MO:null:mod=[
.	8a 8f/	.	8cc\J)	4	.
2d^\	8r	.	(8.cc\L	.	.
.	4a-X 4f/	.	.	.	.
.	.	.	16bn\Jk)	.	.
.	.	.	4b\	.	.
.	8a- 8f/	.	.	.	.
=53	=53	=53	=53	=53	=53
4E-^\	8r	.	16r	.	.
!	!	!	!LO:MO:mod=!LO&colon;TX&colon;a&colon;i&colon;t=appassionato	!	!
!	!	!	!LO:TX:b:t=appassionato.	!	!
!	!	!	!LO:TX:a:t=Sul A	!	!
.	.	.	16bn\	.	.
.	8g 8c 8G/	.	(4cc\	.	.
4BBn^/	8r	.	.	.	.
.	8g 8f 8d 8G/	.	8dd\)	1	.
4C^/	8r	.	8.ee-\L	.	.
.	8g 8e- 8G/	.	.	.	.
.	.	.	16ee-\Jk	.	.
4D^\	8r	.	(4gg^\	.	.
.	8g 8f 8Bn 8G/	.	.	.	.
=54	=54	=54	=54	=54	=54
*	*^	*	*	*	*
8E-\	8r	2ryy	.	8ee-\L)	.	.
!	!	!	!	!	!	!LO:HP:a
4G\	4g 4e-/	.	.	(8dd\	.	>
.	.	.	.	8cc\	.	.
8c\	8g 8e-/	.	.	8g\J)	.	.
.	.	.	.	(8qg/	.	.
8FF/	(4g-X/	2e-\	.	(4b-X/)	.	]
(4c\	.	.	.	.	.	.
.	4f/)	.	.	4an/)	.	.
8F\)	.	.	.	.	.	.
*	*v	*v	*	*	*	*
!!LO:LB:g=original
=55	=55	=55	=55	=55	=55
*	*	*	*^	*	*
*xywh-6:649,2070,3337,717	*xywh-6:649,2070,3337,717	*	*xywh-6:672,1691,3366,460	*xywh-6:672,1691,3366,460	*	*
4r	4r	.	8r	(>8d 8B-\	.	.
.	.	.	8fu/L)	8r	.	.
*tremolo	*tremolo	*	*	*	*	*
32B-\LLL	32b-\LLL	.	(8.b-/	8d\	.	.
32d\	32ff\	.	.	.	.	.
32B-\	32b-\	.	.	.	.	.
32d\	32ff\	.	.	.	.	.
32B-\	32b-\	.	.	8r	.	.
32d\	32ff\	.	.	.	.	.
32B-\	32b-\	.	16b-/Jk)	.	.	.
32d\JJJ	32ff\JJJ	.	.	.	.	.
32F\LLL	32cc\LLL	.	(8.b-/L	8c\	.	.
32e-\	32ff\	.	.	.	.	.
32F\	32cc\	.	.	.	.	.
32e-\	32ff\	.	.	.	.	.
32F\	32cc\	.	.	8r	.	.
32e-\	32ff\	.	.	.	.	.
32F\	32cc\	.	16an/Jk)	.	.	.
32e-\	32ff\	.	.	.	.	.
32F\	32cc\	.	4a/	8f\	.	.
32e-\	32ff\	.	.	.	.	.
32F\	32cc\	.	.	.	.	.
32e-\	32ff\	.	.	.	.	.
32F\	32cc\	.	.	8r	.	.
32e-\	32ff\	.	.	.	.	.
32F\	32cc\	.	.	.	.	.
32e-\JJJ	32ff\JJJ	.	.	.	.	.
=56	=56	=56	=56	=56	=56	=56
32F\LLL	32an\LLL	.	8r	(>8e-\	.	.
32c\	32ff\	.	.	.	.	.
32F\	32a\	.	.	.	.	.
32c\	32ff\	.	.	.	.	.
32F\	32a\	.	8ccu/L)	8r	.	.
32c\	32ff\	.	.	.	.	.
32F\	32a\	.	.	.	.	.
32c\	32ff\JJJ	.	.	.	.	.
32F\	32a-X\LLL	.	(8ff/	8f\	.	.
32c\	32ff\	.	.	.	.	.
32F\	32a-\	.	.	.	.	.
32c\	32ff\	.	.	.	.	.
32F\	32a-\	.	8cc/J)	8r	.	.
32c\	32ff\	.	.	.	.	.
32F\	32a-\	.	.	.	.	.
32c\JJJ	32ff\JJJ	.	.	.	.	.
32F\LLL	32g\LLL	.	(8.cc/L	8d\	.	.
32d\	32gg\	.	.	.	.	.
32F\	32g\	.	.	.	.	.
32d\	32gg\	.	.	.	.	.
32F\	32g\	.	.	8r	.	.
32d\	32gg\	.	.	.	.	.
32F\	32g\	.	16bn/Jk)	.	.	.
32d\	32gg\	.	.	.	.	.
32F\	32g\	.	4b/	4r	.	.
32d\	32gg\	.	.	.	.	.
32F\	32g\	.	.	.	.	.
32d\	32gg\	.	.	.	.	.
32F\	32g\	.	.	.	.	.
32d\	32gg\	.	.	.	.	.
32F\	32g\	.	.	.	.	.
32d\JJJ	32gg\JJJ	.	.	.	.	.
*	*	*	*v	*v	*	*
=57	=57	=57	=57	=57	=57
32E-\LLL	32g\LLL	.	16r	.	.
32G\	32gg\	.	.	.	.
32E-\	32g\	.	16bn 16dv/	.	.
32G\	32gg\	.	.	.	.
32E-\	32g\	.	(4cc 4e-/	.	.
32G\	32gg\	.	.	.	.
32E-\	32g\	.	.	.	.
32G\JJJ	32gg\	.	.	.	.
32D\LLL	32g\	.	.	.	.
32F\	32gg\	.	.	.	.
32D\	32g\	.	.	.	.
32F\	32gg\	.	.	.	.
32D\	32g\	.	8dd 8g/)	.	.
32F\	32gg\	.	.	.	.
32D\	32g\	.	.	.	.
32F\JJJ	32gg\JJJ	.	.	.	.
32C\LLL	32g\LLL	.	8ee-L 8cc/	.	.
32E-\	32gg\	.	.	.	.
32C\	32g\	.	.	.	.
32E-\	32gg\	.	.	.	.
32C\	32g\	.	8ffJ 8dd/	.	.
32E-\	32gg\	.	.	.	.
32C\	32g\	.	.	.	.
32E-\	32gg\	.	.	.	.
32C\	32g\	.	(8.ggL 8.ee-/	.	.
32E-\	32gg\	.	.	.	.
32C\	32g\	.	.	.	.
32E-\	32gg\	.	.	.	.
32C\	32g\	.	.	.	.
32E-\	32gg\	.	.	.	.
32C\	32g\	.	16gJk 16e-/)	.	.
32E-\JJJ	32gg\JJJ	.	.	.	.
=58	=58	=58	=58	=58	=58
*xywh-6:649,2070,3337,717	*xywh-6:649,2070,3337,717	*	*xywh-6:672,1691,3366,460	*xywh-6:672,1691,3366,460	*
*	*	*	*^	*	*
32FF\LLL	4r	.	(8gL 8e-/	2ryy	.	.
32F\	.	.	.	.	.	.
32FF\	.	.	.	.	.	.
32F\	.	.	.	.	.	.
32FF\	.	.	8a- 8c/)	.	.	.
32F\	.	.	.	.	.	.
32FF\	.	.	.	.	.	.
32F\	.	.	.	.	.	.
32FF\	32f/LLL	.	(8dd 8f/	.	.	.
32F\	32an/	.	.	.	.	.
32FF\	32f/	.	.	.	.	.
32F\	32a/	.	.	.	.	.
32FF\	32f/	.	8ccJ 8e-/)	.	.	.
32F\	32a/	.	.	.	.	.
32FF\	32f/	.	.	.	.	.
32F\JJJ	32a/JJJ	.	.	.	.	.
32BB-\LLL	32f/LLL	.	(2b-/	8d\L	.	.
32F\	32b-/	.	.	.	.	.
32BB-\	32f/	.	.	.	.	.
32F\	32b-/	.	.	.	.	.
32BB-\	32f/	.	.	8a-\	.	.
32F\	32b-/	.	.	.	.	.
32BB-\	32f/	.	.	.	.	.
32F\JJJ	32b-/JJJ	.	.	.	.	.
32BB-\LLL	32a-X/LLL	.	.	8g\	.	.
32D\	32b-/	.	.	.	.	.
32BB-\	32a-/	.	.	.	.	.
32D\	32b-/	.	.	.	.	.
!	!	!	!	!LO:SIC:s=8fJ)	!	!
32BB-\	32a-/	.	.	8f\J	.	.
32D\	32b-/	.	.	.	.	.
32BB-\	32a-/	.	.	.	.	.
32D\JJJ	32b-/JJJ	.	.	.	.	.
*Xtremolo	*Xtremolo	*	*	*	*	*
*	*	*	*v	*v	*	*
!!LO:LB:g=original
=59	=59	=59	=59	=59	=59
*xywh-6:614,2992,3360,770	*xywh-6:614,2992,3360,770	*	*xywh-6:667,2682,3278,425	*	*
!	!LO:MO:mod=*null:null	!	!	!	!
*	*Xtuplet	*	*	*	*
!	!	!LO:DY:rj	!LO:SIC:s=8r	!	!
(12E-\L	(12g/L	pp	8r)	.	.
!	!	!	!	!	!LO:MO:mod=.
12G\	12b-/	.	.	.	p
!	!	!	!LO:TX:a:t=Sul A_:dur=7qe:ext=ud:problem:text with extention lines	!	!LO:MO:null:mod=p
.	.	.	8ee-u\L	.	.
12B-\J)	12gg/J)	.	.	.	.
(12B-\L	(12gg/L	.	8dd\	.	.
12G\	12b-/	.	.	.	.
.	.	.	8ee-\J	.	.
12E-\J)	12g/J)	.	.	.	.
(12E-\L	(12a-/L	.	(8een\L	.	.
12A-\	12cc-X/	.	.	.	.
.	.	.	8ff\)	.	.
12c-X\J)	12aa-/J)	.	.	.	.
(12c-\L	(12aa-/L	.	8ff\	.	.
12A-\	12cc-/	.	.	.	.
.	.	.	(8ff\J	.	.
12E-\J)	12a-/J)	.	.	.	.
=60	=60	=60	=60	=60	=60
(12E-\L	(12a-/L	.	8aa-\L)	.	.
12A-\	12dd 12b-/	.	.	.	.
.	.	.	(8aa-^\	.	.
12B-\J)	12aa-/J)	.	.	.	.
(12B-\L	(12aa-/L	.	(8.gg\	.	.
12A-\	12dd 12b-/	.	.	.	.
12E-\J)	12a-/J)	.	.	.	.
.	.	.	16ff#X\Jk))	.	.
(12E-\L	(12g/L	.	(4ff#\	.	.
12G\	12b-/	.	.	.	.
12B-\J)	12ee-/J)	.	.	.	.
(12B-\L	(12ee-/L	.	4gg\)	.	.
12G\	12b-/	.	.	.	.
12E-\J)	12g/J)	.	.	.	.
=61	=61	=61	=61	=61	=61
!	!	!LO:MO:null:mod=<	!	!	!
(12E-\L	(12g/L	.	8r	.	.
!	!	!LO:MO:mod=.	!	!	!
12G\	12b-/	<	.	.	.
.	.	.	8ggu\L	.	<
12B-\J)	12ee-/J)	.	.	.	.
(12B-\L	(12ee-/L	.	8ff#X\	.	.
12G\	12b-/	.	.	.	.
.	.	.	8gg\J	.	.
12E-\J)	12g/J)	.	.	.	.
(12E-\L	(12a-/L	.	(8gg\L	.	.
12A-\	12cc/	.	.	.	.
.	.	.	8aa-\)	.	.
12c\J)	12ee-/J)	.	.	.	.
(12c\L	(12ee-/L	.	8aa-\	.	.
12A-\	12cc/	.	.	.	.
.	.	.	(8aa-\J	.	.
12E-\J)	12a-/J)	.	.	.	.
=62	=62	=62	=62	=62	=62
(12E-\L	(12a-/L	.	8ccc\L)	.	.
12A-\	12dd/	.	.	.	.
.	.	.	(8ccc^\	.	.
12d\J)	12ff/J)	.	.	.	.
(12d\L	(12ff/L	.	(8.bb-\	.	.
12A-\	12dd/	.	.	.	.
12E-\J)	12a-/J)	.	.	.	.
.	.	.	16aan\Jk))	.	.
(12E-\L	(12g/L	[	(4ccc\	.	[
12G\	12ee-/	.	.	.	.
12e-\J)	12gg/J)	.	.	.	.
(12e-\L	(12gg/L	.	4bb-\)	.	.
12G\	12ee-/	.	.	.	.
12E-\J)	12g/J)	.	.	.	.
!!LO:LB:g=original
=63	=63	=63	=63	=63	=63
*xywh-6:673,4059,3308,770	*xywh-6:673,4059,3308,770	*	*xywh-6:731,3727,3226,425	*xywh-6:731,3727,3226,425	*
(12E-\L	(12b-\L	<	8r	.	.
!	!	!	!	!	!LO:MO:mod=.
12B-\	12ee-\	.	.	.	<
!	!	!	!	!	!LO:MO:null:mod=<
.	.	.	8eee-u\L	.	.
12g\J)	12bb-\J)	.	.	.	.
(12g\L	(12bb-\L	.	8eee-\	.	.
12B-\	12ee-\	.	.	.	.
.	.	.	8eee-\J	.	.
12G\J)	12b-\J)	.	.	.	.
(12F\L	(12a-\L	.	(8.eee-\L	.	.
12B-\	12dd\	.	.	.	.
12f\J)	12aa-\J)	.	.	.	.
.	.	.	16ddd\Jk)	.	.
(12f\L	(12aa-\L	.	4ddd\	.	.
12B-\	12dd\	.	.	.	.
12A-\J)	12b-\J)	.	.	.	.
=64	=64	=64	=64	=64	=64
(12G\L	(12b-\L	.	8r	.	.
12B-\	12ee-\	.	.	.	.
.	.	.	(8eee-v\L	.	.
12g\J)	12bb-\J)	.	.	.	.
.	.	.	8qfff/	.	.
(12g\L	(12bb-\L	.	8.fff\	.	.
12B-\	12ee-\	.	.	.	.
12G\J)	12b-\J)	.	.	.	.
.	.	.	16eee-\Jk)	.	.
(12F#X\L	(12an\L	.	(8.eee-\L	.	.
12An\	12dd\	.	.	.	.
12f#X\J)	12aan\J)	.	.	.	.
.	.	.	16ddd\Jk)	.	.
(12f#\L	(12aa\L	.	4ddd\	.	.
12A\	12dd\	.	.	.	.
12F#\J)	12a\J)	.	.	.	.
=65	=65	=65	=65	=65	=65
(12Fn\L	(12a-X\L	.	8r	.	.
12A-X\	12dd\	.	.	.	.
.	.	.	8dddu\L	.	.
12fn\J)	12aa-X\J)	.	.	.	.
(12f\L	(12aa-\L	.	8ccc\	.	.
12A-\	12dd\	.	.	.	.
.	.	.	8bbn\J	.	.
12F\J)	12a-\J)	.	.	.	.
(12En\L	(12g\L	.	(8.ddd\L	.	.
12G\	12cc\	.	.	.	.
12en\J)	12gg\J)	.	.	.	.
.	.	.	16ccc\Jk)	.	.
(12e\L	(12gg\L	.	4ccc\	.	.
12G\	12cc\	.	.	.	.
12E\J)	12a-\J)	.	.	.	.
!!LO:PB:g=original
=66	=66	=66	=66	=66	=66
*xywh-7:349,1040,3277,836	*xywh-7:349,1040,3277,836	*	*xywh-7:362,661,3248,493	*xywh-7:362,661,3248,493	*
(12E-X\L	(12g-X/L	.	8r	.	.
12G-X\	12cc/	.	.	.	.
.	.	.	8cccu\L	.	.
12e-X\J)	12gg-X/J)	.	.	.	.
(12e-\L	(12gg-/L	.	8bb-X\	.	.
12G-\	12cc/	.	.	.	.
.	.	.	8aan\J	.	.
12E-\J)	12g-/J)	.	.	.	.
(12D\L	(12f/L	.	(8.ccc\L	.	.
12F\	12b-/	.	.	.	.
12d\J)	12ff/J)	.	.	.	.
.	.	.	16bb-\Jk)	.	.
(12d\L	(12ff/L	.	4bb-\	.	.
12F\	12b-/	.	.	.	.
12D\J)	12f/J)	.	.	.	.
=67	=67	=67	=67	=67	=67
!	!	!	!LO:MO:mod=!LO&colon;TX&colon;a&colon;i&colon;t=animato	!	!
!	!	!	!null	!	!
(12D\L	(12f/L	.	4bb-\	.	.
!	!	!	!LO:MO:mod=!null:null	!	!
!	!	!	!LO:TX:b:t=animato.	!	!
12F\	12b-/	.	.	.	.
12d\J)	12ff/J)	.	.	.	.
(12d\L	(12ff/L	.	((4bbb-\	.	.
12F\	12b-/	.	.	.	.
12D\J)	12f/J)	.	.	.	.
(12E-X\L	(12g-X/L	.	8.bbb-\L)	.	.
12G-X\	12b-/	.	.	.	.
12e-\J)	12gg-X/J)	.	.	.	.
.	.	.	16bb-\Jk)	.	.
(12e-\L	(12gg-/L	.	([4bb-\	.	.
12G-\	12b-/	.	.	.	.
12E-\J)	12g-/J)	.	.	.	.
=68	=68	=68	=68	=68	=68
(12En\L	(12gn/L	.	8.bb-\L]	.	.
12Gn\	12b-/	.	.	.	.
12en\J)	12ggn/J)	.	.	.	.
.	.	.	16b-\Jk)	.	.
(12e\L	(12gg/L	.	(2b-/	.	.
!	!	!	!LO:MO:mod=!LO&colon;TX&colon;a&colon;i&colon;t=ritard.	!	!
!	!	!	!LO:TX:a:t=ritard.	!	!
12G\	12b-/	.	.	.	.
12E\J)	12g/J)	.	.	.	.
!	!LO:MO:mod=!LO&colon;TX&colon;b&colon;i&colon;t=ritard.	!	!	!	!
!	!LO:TX:b:t=ritard.	!	!	!	!
12FL 12FF^\	12a-^/L	.	.	.	.
12D 12DD^\	12dd 12d^/	.	.	.	.
12A-J 12AA-^\	12aa-J 12a-^/	.	.	.	.
8cL 8C^\	8cccL 8cc^\	.	8.B-/L	.	.
8B-J 8BB-^\	8bb-J 8b-^\	.	.	.	.
.	.	.	16g/Jk)	.	.
=69	=69	=69	=69	=69	=69
!	!	!	!LO:TX:a:t=Sul G_	!	!
!LO:TX:t=P:problem:mixed beam	!LO:TX:a:B:t=a tempo.	!	!LO:TX:a:B:t=a tempo.	!	!LO:DY:rj
16EE-LL 16EEE-/	16r	ff	(4.g/	.	ff
!	!LO:MO:mod=!LO&colon;TX&colon;b&colon;i&colon;t=grandioso	!	!LO:MO:mod=!LO&colon;TX&colon;b&colon;i&colon;t=grandioso	!	!
!LO:SIC:s=(<16G	!null	!	!LO:TX:b:t=grandioso.	!	!
(>16G\	(16g\LL	.	.	.	.
16B-\	16b-\	.	.	.	.
16e-\JJ)	16ee-\JJ)	.	.	.	.
4.e- 4.B- 4.E-\	2gg 2ee- 2b- 2g^\	.	.	.	.
.	.	.	8d/)	.	.
.	.	.	(8f^/L	.	.
8GG 8GGG/	.	.	8e-^/	.	.
4G 4E- 4BB- 4GG/	4b- 4e- 4B-/	.	8B-^/	.	.
.	.	.	8G^/J)	.	.
!!LO:LB:g=original
=70	=70	=70	=70	=70	=70
*xywh-7:230,2076,3370,743	*xywh-7:230,2076,3370,743	*	*xywh-7:311,1725,3295,470	*xywh-7:311,1725,3295,470	*
!	!	!	!LO:TX:t=P:problem:klamra łukowa	!	!
8FL 8FF\	(8.cc-XL 8.e- 8.c-X/	.	12G^/L	.	.
.	.	.	12A-^/	.	.
8A- 8F\	.	.	.	.	.
.	.	.	12c-X^/J	.	.
.	16f/Jk)	.	.	.	.
8c-X 8A-\	4f 4e-/	.	((2c-/	.	.
8A-J 8F\	.	.	.	.	.
8BB-\L	8.r	.	.	.	.
8A- 8F\	.	.	.	.	.
.	16f 16d/	.	.	.	.
8B- 8A-\	4b- 4f/	.	8.B-/L)	.	.
8A-J 8F\	.	.	.	.	.
.	.	.	16b-/Jk)	.	.
=71	=71	=71	=71	=71	=71
8EE- 8EEE-/	16r	.	(4.gg\	.	.
.	16b- 16g/	.	.	.	.
4g 4B- 4G^<\	4gg 4b-^\	.	.	.	.
8d\	8dd\	.	8dd\)	.	.
(8fL 8B- 8G\	(8ffL 8b- 8g\	.	(8ff^\L	.	.
8e-\)	8ee-\)	.	8ee-^\	.	.
8B-\	8b-\	.	8b-^\	.	.
8G\J	8g\J	.	8g^\J)	.	.
=72	=72	=72	=72	=72	=72
!	!	!	!LO:TX:t=P:problem:klamra łukowa	!	!
8FL 8FF\	(8.cc-XL 8.e- 8.c-X/	.	12gL 12G^/	.	.
.	.	.	12a- 12A-^/	.	.
8A- 8F\	.	.	.	.	.
.	.	.	12cc-XJ 12c-X^/	.	.
.	16f/Jk)	.	.	.	.
8c-X 8A-\	4f 4e-/	.	(2cc- (2c-/	.	.
8A-J 8F\	.	.	.	.	.
8BB-\L	8.r	.	.	.	.
8A- 8F\	.	.	.	.	.
.	16f 16d/	.	.	.	.
8B- 8A-\	4b- 4f/	.	4b- 4B-/))	.	.
8A-J 8F\	.	.	.	.	.
=73	=73	=73	=73	=73	=73
*tremolo	*tremolo	*	*	*	*
32BB-LLL 32EE-/	32d-XLLL 32G/	.	16r	.	.
32E-/	32e-/	.	.	.	.
!	!	!	!LO:MO:mod=!LO&colon;TX&colon;b&colon;i&colon;t=con fuoco	!	!
!	!	!	!LO:TX:b:t=con fuoco.	!	!
32BB- 32EE-/	32d- 32G/	.	16bb- 16b-u\	.	.
32E-/	32e-/	.	.	.	.
32BB- 32EE-/	32d- 32G/	.	(4eee- (4ee-\	.	.
32E-/	32e-/	.	.	.	.
32BB- 32EE-/	32d- 32G/	.	.	.	.
32E-/	32e-/	.	.	.	.
32BB- 32EE-/	32d- 32G/	.	.	.	.
32E-/	32e-/	.	.	.	.
32BB- 32EE-/	32d- 32G/	.	.	.	.
32E-/	32e-/	.	.	.	.
32BB- 32EE-/	32d- 32G/	.	8bbn 8bn\))	.	.
32E-/	32e-/	.	.	.	.
32BB- 32EE-/	32d- 32G/	.	.	.	.
32E-/JJJ	32e-/JJJ	.	.	.	.
32AA-/LLL	32cLLL 32A-/	.	(8bbL 8b\	.	.
32E-/	32e-/	.	.	.	.
32AA-/	32c 32A-/	.	.	.	.
32E-/	32e-/	.	.	.	.
32AA-/	32c 32A-/	.	8ccc 8cc\)	.	.
32E-/	32e-/	.	.	.	.
32AA-/	32c 32A-/	.	.	.	.
32E-/	32e-/	.	.	.	.
32AA-/	32c 32A-/	.	(8ddd-X 8dd-X\	.	.
32E-/	32e-/	.	.	.	.
32AA-/	32c 32A-/	.	.	.	.
32E-/	32e-/	.	.	.	.
32AA-/	32c 32A-/	.	8cccJ 8cc\)	.	.
32E-/	32e-/	.	.	.	.
32AA-/	32c 32A-/	.	.	.	.
32E-/JJJ	32e-/JJJ	.	.	.	.
!!LO:LB:g=original
=74	=74	=74	=74	=74	=74
*xywh-7:276,3113,3335,697	*xywh-7:276,3113,3335,697	*	*xywh-7:329,2741,3254,406	*xywh-7:329,2741,3254,406	*
32DLLL 32GG\	32fLLL 32Bn/	.	16r	.	.
32G\	32g/	.	.	.	.
32D 32GG\	32f 32B/	.	16dddn 16ddnu\	.	.
32G\	32g/	.	.	.	.
32D 32GG\	32f 32B/	.	(4ggg 4gg^\	.	.
32G\	32g/	.	.	.	.
32D 32GG\	32f 32B/	.	.	.	.
32G\	32g/	.	.	.	.
32D 32GG\	32f 32B/	.	.	.	.
32G\	32g/	.	.	.	.
32D 32GG\	32f 32B/	.	.	.	.
32G\	32g/	.	.	.	.
32D 32GG\	32f 32B/	.	8ddd 8dd\)	.	.
32G\	32g/	.	.	.	.
32D 32GG\	32f 32B/	.	.	.	.
32G\JJJ	32g/JJJ	.	.	.	.
32C\LLL	32e-LLL 32c/	.	(8dddL 8dd\	.	.
32G\	32g/	.	.	.	.
32C\	32e- 32c/	.	.	.	.
32G\	32g/	.	.	.	.
32C\	32e- 32c/	.	8eee- 8ee-\)	.	.
32G\	32g/	.	.	.	.
32C\	32e- 32c/	.	.	.	.
32G\	32g/	.	.	.	.
32C\	32e- 32c/	.	(8fff 8ff\	.	.
32G\	32g/	.	.	.	.
32C\	32e- 32c/	.	.	.	.
32G\	32g/	.	.	.	.
32C\	32e- 32c/	.	8eee-J 8ee-\)	.	.
32G\	32g/	.	.	.	.
32C\	32e- 32c/	.	.	.	.
32G\JJJ	32g/JJJ	.	.	.	.
*Xtremolo	*	*	*	*	*
=75	=75	=75	=75	=75	=75
*	*	*	*Xbrackettup	*	*
!	!	!	!LO:TUP:a:problem:klamra łukowa	!	!
4A- 4AA-\	32a-LLL 32e-/	.	12r	.	.
.	32c-X/	.	.	.	.
.	32a- 32e-/	.	.	.	.
.	.	.	12eee-L 12ee-\	.	.
.	32c-/	.	.	.	.
.	32a- 32e-/	.	.	.	.
.	32c-/	.	.	.	.
.	.	.	12aaa-J 12aa-\	.	.
.	32a- 32e-/	.	.	.	.
.	32c-/	.	.	.	.
8.r	32a- 32e-/	.	(2aaa- 2aa-\	.	.
.	32c-/	.	.	.	.
.	32a- 32e-/	.	.	.	.
.	32c-/	.	.	.	.
.	32a- 32e-/	.	.	.	.
.	32c-/	.	.	.	.
16F 16FF/	32a- 32e-/	.	.	.	.
.	32c-/	.	.	.	.
2F 2FF/	32a- 32e-/	.	.	.	.
.	32c-/	.	.	.	.
.	32a- 32e-/	.	.	.	.
.	32c-/	.	.	.	.
.	32a- 32e-/	.	.	.	.
.	32c-/	.	.	.	.
.	32a- 32e-/	.	.	.	.
.	32c-/	.	.	.	.
.	32a- 32e-/	.	4e-/)	.	.
.	32c-/	.	.	.	.
.	32a- 32e-/	.	.	.	.
.	32c-/	.	.	.	.
.	32a- 32e-/	.	.	.	.
.	32c-/	.	.	.	.
.	32a- 32e-/	.	.	.	.
.	32c-/JJJ	.	.	.	.
=76	=76	=76	=76	=76	=76
!	!	!	!LO:TX:a:t=Sul G_:dur=4q:ext=ud:problem:text with extention lines	!	!
4B- 4BB-\	32a-LLL 32d/	.	24d/LL	.	.
.	32B-/	.	.	.	.
.	.	.	24e-/	.	.
.	32a- 32d/	.	.	.	.
.	.	.	24d/	.	.
.	32B-/	.	.	.	.
.	32a- 32d/	.	24c#X/	.	.
.	32B-/	.	.	.	.
.	.	.	24d/	.	.
.	32a- 32d/	.	.	.	.
.	.	.	24cc/JJ	.	.
.	32B-/	.	.	.	.
8.r	32a- 32d/	.	(2cc/	.	.
.	32B-/	.	.	.	.
.	32a- 32d/	.	.	.	.
.	32B-/	.	.	.	.
.	32a- 32d/	.	.	.	.
.	32B-/	.	.	.	.
16BB- 16BBB-/	32a- 32d/	.	.	.	.
.	32B-/	.	.	.	.
2BB- 2BBB-/	32a- 32d/	.	.	.	.
.	32B-/	.	.	.	.
.	32a- 32d/	.	.	.	.
.	32B-/	.	.	.	.
.	32a- 32d/	.	.	.	.
.	32B-/	.	.	.	.
.	32a- 32d/	.	.	.	.
.	32B-/	.	.	.	.
.	32a- 32d/	.	4d/)	.	.
.	32B-/	.	.	.	.
.	32a- 32d/	.	.	.	.
.	32B-/	.	.	.	.
.	32a- 32d/	.	.	.	.
.	32B-/	.	.	.	.
.	32a- 32d/	.	.	.	.
.	32B-/JJJ	.	.	.	.
*	*Xtremolo	*	*	*	*
=77	=77	=77	=77	=77	=77
*tremolo	*	*	*	*	*
!	!	!	!	!	!LO:DY:a
32EE-/LLL	(4.g 4.e-/	p	2e-/	.	p
32BB-/	.	.	.	.	.
32EE-/	.	.	.	.	.
32BB-/	.	.	.	.	.
32EE-/	.	.	.	.	.
32BB-/	.	.	.	.	.
32EE-/	.	.	.	.	.
32BB-/	.	.	.	.	.
32EE-/	.	.	.	.	.
32BB-/	.	.	.	.	.
32EE-/	.	.	.	.	.
32BB-/	.	.	.	.	.
32EE-/	8d/)	.	.	.	.
32BB-/	.	.	.	.	.
32EE-/	.	.	.	.	.
32BB-/	.	.	.	.	.
32EE-/	(8f/L	.	(4g/	.	.
32BB-/	.	.	.	.	.
32EE-/	.	.	.	.	.
32BB-/	.	.	.	.	.
32EE-/	8e-/	.	.	.	.
32BB-/	.	.	.	.	.
32EE-/	.	.	.	.	.
32BB-/	.	.	.	.	.
32EE-/	8B-/	.	4b-/)	.	.
32BB-/	.	.	.	.	.
32EE-/	.	.	.	.	.
32BB-/	.	.	.	.	.
32EE-/	8G/J)	.	.	.	.
32BB-/	.	.	.	.	.
32EE-/	.	.	.	.	.
32BB-/JJJ	.	.	.	.	.
=78	=78	=78	=78	=78	=78
32EE-/LLL	16r	.	2ee-\	.	.
32AA-/	.	.	.	.	.
32EE-/	16c-X/	.	.	.	.
32AA-/	.	.	.	.	.
32EE-/	(4a-/	.	.	.	.
32AA-/	.	.	.	.	.
32EE-/	.	.	.	.	.
32AA-/	.	.	.	.	.
32EE-/	.	.	.	.	.
32AA-/	.	.	.	.	.
32EE-/	.	.	.	.	.
32AA-/	.	.	.	.	.
32EE-/	8d/)	.	.	.	.
32AA-/	.	.	.	.	.
32EE-/	.	.	.	.	.
32AA-/JJJ	.	.	.	.	.
32EE-/LLL	(8f/L	.	(4aa-\	.	.
32C-X/	.	.	.	.	.
32EE-/	.	.	.	.	.
32C-X/	.	.	.	.	.
32EE-/	8e-/	.	.	.	.
32C-X/	.	.	.	.	.
32EE-/	.	.	.	.	.
32C-X/JJJ	.	.	.	.	.
32EE-/LLL	8c-/	.	4ccc-X\)	.	.
32AA-/	.	.	.	.	.
32EE-/	.	.	.	.	.
32AA-/	.	.	.	.	.
32EE-/	8A-/J)	.	.	.	.
32AA-/	.	.	.	.	.
32EE-/	.	.	.	.	.
32AA-/JJJ	.	.	.	.	.
!!LO:LB:g=original
=79	=79	=79	=79	=79	=79
*	*^	*	*	*	*
*xywh-7:265,4008,3330,999	*xywh-7:265,4008,3330,999	*xywh-7:265,4008,3330,999	*	*xywh-7:334,3735,3237,488	*xywh-7:334,3735,3237,488	*
!LO:MO:mod=!LO&colon;TX&colon;a&colon;i&colon;t=morendo	!	!	!	!LO:MO:mod=!LO&colon;TX&colon;b&colon;i&colon;t=morendo	!	!
!LO:TX:a:t=morendo.	!	!	!	!LO:TX:b:t=morendo.	!	!
(16EE-\LL	1e-	8r	.	(16eee-\LL	.	.
16BB-\J	.	.	.	16ddd\	.	.
8G\J)	.	8B-\	.	16fff\	.	.
.	.	.	.	16eee-\JJ	.	.
(16GG\LL	.	8r	.	16bb-\LL	.	.
16E-\J	.	.	.	16aan\	.	.
8G\J)	.	8e- 8B-\	.	16ccc\	.	.
.	.	.	.	16bb-\JJ	.	.
(16BB-\LL	.	8r	.	16gg\LL	.	.
16G\J	.	.	.	16ff#X\	.	.
8B-\J)	.	8g 8e-\	.	16aa\	.	.
.	.	.	.	16gg\JJ	.	.
(16E-\LL	.	8r	.	16ee-\LL	.	.
16B-\J	.	.	.	16b-\	.	.
8e-\J)	.	8b- 8g\	.	16g\	.	.
.	.	.	.	16e-\JJ)	.	.
*	*v	*v	*	*	*	*
=80	=80	=80	=80	=80	=80
!LO:TX:t=P:problem:mixed beam	!	!	!	!	!
(16G//LL	8r	.	(16B-/LL	.	.
16e->\\J	.	.	16G/	.	.
8g>\\J)	8ee- 8b-/	.	16B-/	.	.
.	.	.	16e-/JJ	.	.
!LO:TX:t=P:problem:mixed beam	!	!	!	!	!
(16B-//LL	8r	.	16g/LL	.	.
16g>\\J	.	.	16b-/	.	.
8b->\\J)	8gg 8ee-/	.	16gg/	.	.
.	.	.	16ff/JJ)	.	.
(>16e->\LL	8r	.	(16ee-/LL	.	.
16b->\J	.	.	16b-/	.	.
8ee->\J)	8bb- 8gg/	.	16g/	.	.
.	.	.	16e-/JJ	.	.
(>16g>\LL	8r	.	16c/LL	.	.
16ee->\J	.	.	16B-/	.	.
8gg>\J)	8eee- 8bb-/	.	16G/	.	.
.	.	.	16B-/JJ)	.	.
=81	=81	=81	=81	=81	=81
*	*8va	*	*	*	*
4b-> 4g> 4e->\	4eeee- 4eee-/	.	[1e-	.	.
*	*X8va	*	*	*	*
4r	4r	.	.	.	.
4B- 4E-\	4ee- 4g 4e-/	.	.	.	.
4r	4r	.	.	.	.
=82	=82	=82	=82	=82	=82
2.E- 2.BB- 2.EE-\	2.e- 2.B-< 2.G</	.	2.e-/]	.	.
!LO:TX:b:t=FINE.:mod=	!	!	!	!	!
4r;	4r;	.	4r;	.	.
==	==	==	==	==	==
*-	*-	*-	*-	*-	*-
!!!system-decoration: s1{(s2,s3)}
!!!RDF**kern: > = above
!!!RDF**kern: < = below
!!LO:MO:ori
!!!RDF**dynam: < = "cres.", fontstyle = "normal"
!!!RDF**dynam: > = "dim.", fontstyle = "normal"
!!LO:MO:end
!!!filter-modern: sic -sq | autostem -r | shed -e "s/LO:DY:(a|b|rj)/LO:dy:$1/L" | shed -k -e “s/([^a-gA-Gn#X-])[<>]/$1/g” | shed -e "s/TX(.*):t=P:/tx$1:t=P:/LG" | modori -m
!!!ENC: Marta Opryszak
!!!END: 2022-05-09
!!!ENC: Marta Lawrence
!!!END: 2022-05-20
!!!ENC-modern: Marta Lawrence
!!!END-modern: 2022-07-19
!!!ENC-iiif: Marta Opryszak
!!!END-iiif: 2022-08-22
!!!YEC: Copyright 2022 Narodowy Instytut Fryderyka Chopina (https://polishscores.org)
!!!YEM: License CC-BY-4.0 (https://creativecommons.org/licenses/by/4.0)
